suite-common/icons/assets/icons/faceId.svg

<svg width="64" height="64" viewBox="0 0 64 64" fill="none" xmlns="http://www.w3.org/2000/svg">
    <g id="Symbol Face ID">
        <path id="Rectangle 3433 (Stroke)" fill-rule="evenodd" clip-rule="evenodd" d="M22.3055 8.65284C22.3181 9.57812 21.5781 10.3384 20.6529 10.3509C17.3897 10.3951 15.8267 10.5993 14.6505 11.1986C13.1642 11.9559 11.9558 13.1643 11.1985 14.6506C10.6158 15.7943 10.4045 17.3102 10.3543 20.418C10.3393 21.3433 9.57712 22.0812 8.65186 22.0662C7.72661 22.0513 6.98868 21.2891 7.00364 20.3638C7.05329 17.294 7.2367 15.0447 8.21267 13.1292C9.29125 11.0124 11.0123 9.29138 13.1291 8.2128C15.0903 7.21353 17.4073 7.04352 20.6074 7.00016C21.5327 6.98762 22.293 7.72755 22.3055 8.65284Z" fill="#FFFFFF"/>
        <path id="Rectangle 3432 (Stroke)" fill-rule="evenodd" clip-rule="evenodd" d="M8.65284 41.6942C9.57812 41.6817 10.3384 42.4216 10.3509 43.3469C10.3951 46.6101 10.5993 48.1731 11.1986 49.3493C11.9559 50.8356 13.1643 52.044 14.6506 52.8013C15.8268 53.4006 17.3898 53.6048 20.653 53.649C21.5783 53.6615 22.3182 54.4218 22.3057 55.3471C22.2931 56.2724 21.5329 57.0123 20.6076 56.9998C17.4075 56.9564 15.0904 56.7864 13.1292 55.7871C11.0124 54.7085 9.29138 52.9875 8.2128 50.8707C7.21353 48.9095 7.04352 46.5924 7.00016 43.3923C6.98762 42.467 7.72755 41.7068 8.65284 41.6942Z" fill="#FFFFFF"/>
        <path id="Rectangle 3431 (Stroke)" fill-rule="evenodd" clip-rule="evenodd" d="M55.3472 41.6942C56.2725 41.7068 57.0124 42.467 56.9999 43.3923C56.9565 46.5924 56.7865 48.9095 55.7873 50.8707C54.7087 52.9875 52.9876 54.7085 50.8708 55.7871C48.9554 56.7631 46.706 56.9465 43.6362 56.9961C42.711 57.0111 41.9488 56.2732 41.9338 55.3479C41.9189 54.4227 42.6568 53.6605 43.582 53.6455C46.6899 53.5952 48.2058 53.384 49.3495 52.8013C50.8357 52.044 52.0441 50.8356 52.8014 49.3493C53.4007 48.1731 53.6049 46.6101 53.6491 43.3469C53.6617 42.4216 54.4219 41.6817 55.3472 41.6942Z" fill="#FFFFFF"/>
        <path id="Rectangle 3430 (Stroke)" fill-rule="evenodd" clip-rule="evenodd" d="M41.9338 8.65186C41.9488 7.72661 42.711 6.98868 43.6362 7.00364C46.706 7.05329 48.9554 7.2367 50.8708 8.21267C52.9876 9.29125 54.7087 11.0123 55.7873 13.1291C56.7632 15.0446 56.9466 17.2939 56.9963 20.3637C57.0112 21.2889 56.2733 22.0511 55.3481 22.0661C54.4228 22.0811 53.6606 21.3431 53.6456 20.4179C53.5954 17.3101 53.3842 15.7942 52.8014 14.6505C52.0441 13.1642 50.8357 11.9558 49.3495 11.1985C48.2058 10.6158 46.6899 10.4045 43.582 10.3543C42.6568 10.3393 41.9189 9.57712 41.9338 8.65186Z" fill="#FFFFFF"/>
        <path id="Vector 149 (Stroke)" fill-rule="evenodd" clip-rule="evenodd" d="M32.9575 23.6223C33.8828 23.6223 34.633 24.3725 34.633 25.2979V34.1025C34.6337 34.116 34.6343 34.1304 34.6348 34.1455C34.6372 34.2154 34.638 34.3037 34.634 34.4075C34.626 34.6138 34.5991 34.8886 34.5259 35.2046C34.3786 35.8411 34.0385 36.6609 33.2871 37.3908C32.4437 38.2099 31.4006 38.4685 30.7186 38.5549C30.3598 38.6004 30.046 38.6052 29.8193 38.5989C29.7047 38.5957 29.609 38.5896 29.537 38.5836C29.5009 38.5806 29.4705 38.5776 29.4463 38.575C29.4342 38.5737 29.4237 38.5726 29.4148 38.5715L29.4026 38.57L29.3974 38.5694L29.3951 38.5691L29.3939 38.5689C29.3934 38.5689 29.3929 38.5688 29.6064 36.9069L29.3929 38.5688C28.475 38.4509 27.8266 37.6112 27.9445 36.6934C28.0618 35.7809 28.8924 35.1346 29.8041 35.2431C29.806 35.2433 29.8094 35.2436 29.8141 35.244C29.8315 35.2454 29.8656 35.2478 29.9127 35.2491C30.0093 35.2518 30.1463 35.2496 30.2975 35.2304C30.6355 35.1876 30.8491 35.0872 30.9523 34.9869C31.1474 34.7974 31.2262 34.6 31.2612 34.449C31.2792 34.3712 31.2842 34.3098 31.2854 34.2783C31.2855 34.2764 31.2855 34.2747 31.2856 34.2731L31.2819 34.2358V25.2979C31.2819 24.3725 32.0321 23.6223 32.9575 23.6223Z" fill="#FFFFFF"/>
        <path id="Vector 146 (Stroke)" fill-rule="evenodd" clip-rule="evenodd" d="M21.7074 23.5027C22.765 23.5027 23.6223 24.36 23.6223 25.4176V29.6064C23.6223 30.664 22.765 31.5213 21.7074 31.5213C20.6498 31.5213 19.7925 30.664 19.7925 29.6064V25.4176C19.7925 24.36 20.6498 23.5027 21.7074 23.5027Z" fill="#FFFFFF"/>
        <path id="Vector 147 (Stroke)" fill-rule="evenodd" clip-rule="evenodd" d="M42.2923 23.5027C43.3499 23.5027 44.2072 24.36 44.2072 25.4176V29.6064C44.2072 30.664 43.3499 31.5213 42.2923 31.5213C41.2348 31.5213 40.3774 30.664 40.3774 29.6064V25.4176C40.3774 24.36 41.2348 23.5027 42.2923 23.5027Z" fill="#FFFFFF"/>
        <path id="Vector 148 (Stroke)" fill-rule="evenodd" clip-rule="evenodd" d="M25.9289 41.7525C25.9289 41.7525 25.9289 41.7525 25.9289 41.7525L25.9287 41.7523C25.9288 41.7524 25.9288 41.7524 25.9289 41.7525ZM25.9196 41.7425C25.2902 41.0736 24.2381 41.0358 23.5622 41.6604C22.8826 42.2885 22.8409 43.3486 23.469 44.0281L24.6995 42.8909C23.469 44.0281 23.4696 44.0287 23.4701 44.0294L23.4713 44.0307L23.4739 44.0334L23.4797 44.0397C23.484 44.0442 23.4888 44.0493 23.4943 44.055C23.5053 44.0665 23.5188 44.0805 23.5348 44.0968C23.5669 44.1293 23.6091 44.1711 23.6616 44.2208C23.7665 44.3201 23.9126 44.4513 24.1 44.6033C24.4744 44.9072 25.0166 45.2965 25.7274 45.6811C27.155 46.4534 29.2519 47.1994 32 47.1994C34.7481 47.1994 36.845 46.4534 38.2727 45.6811C38.9835 45.2965 39.5257 44.9072 39.9001 44.6033C40.0875 44.4513 40.2335 44.3201 40.3384 44.2208C40.3909 44.1711 40.4332 44.1293 40.4653 44.0968C40.4813 44.0805 40.4948 44.0665 40.5058 44.055C40.5112 44.0493 40.5161 44.0442 40.5203 44.0397L40.5262 44.0334L40.5287 44.0307L40.5299 44.0294C40.5305 44.0287 40.5311 44.0281 39.3006 42.8909L40.5311 44.0281C41.1591 43.3486 41.1174 42.2885 40.4378 41.6604C39.762 41.0358 38.7098 41.0736 38.0805 41.7425C38.08 41.7429 38.0795 41.7435 38.0789 41.7441C38.0729 41.7502 38.0582 41.7649 38.0346 41.7873C37.9874 41.8319 37.9053 41.9064 37.7885 42.0012C37.5546 42.1911 37.1841 42.4599 36.6782 42.7337C35.6724 43.2778 34.119 43.8483 32 43.8483C29.8811 43.8483 28.3277 43.2778 27.3219 42.7337C26.8159 42.4599 26.4455 42.1911 26.2115 42.0012C26.0947 41.9064 26.0127 41.8319 25.9655 41.7873C25.9419 41.7649 25.9271 41.7502 25.9212 41.7441C25.9205 41.7435 25.92 41.7429 25.9196 41.7425Z" fill="#FFFFFF"/>
    </g>
</svg>

<svg fill="none" viewBox="0 0 64 64">
  <path fill="#FFF" fill-rule="evenodd" d="M22.305 8.653a1.675 1.675 0 0 1-1.652 1.698c-3.263.044-4.826.248-6.002.848a7.899 7.899 0 0 0-3.453 3.452c-.582 1.143-.793 2.66-.844 5.767a1.676 1.676 0 1 1-3.35-.054c.05-3.07.233-5.32 1.209-7.235a11.25 11.25 0 0 1 4.916-4.916c1.961-1 4.278-1.17 7.478-1.213a1.676 1.676 0 0 1 1.698 1.653ZM8.653 41.694a1.676 1.676 0 0 1 1.698 1.653c.044 3.263.248 4.826.848 6.002a7.899 7.899 0 0 0 3.452 3.452c1.176.6 2.739.804 6.002.848a1.676 1.676 0 1 1-.045 3.35c-3.2-.043-5.518-.213-7.479-1.212a11.25 11.25 0 0 1-4.916-4.916c-1-1.962-1.17-4.279-1.213-7.479a1.676 1.676 0 0 1 1.653-1.698Zm46.694 0A1.676 1.676 0 0 1 57 43.392c-.044 3.2-.214 5.517-1.213 7.479a11.25 11.25 0 0 1-4.916 4.916c-1.916.976-4.165 1.16-7.235 1.21a1.676 1.676 0 1 1-.054-3.352c3.108-.05 4.624-.261 5.767-.844a7.9 7.9 0 0 0 3.452-3.452c.6-1.176.804-2.739.848-6.002a1.676 1.676 0 0 1 1.698-1.653ZM41.934 8.652a1.676 1.676 0 0 1 1.702-1.648c3.07.05 5.32.233 7.235 1.209a11.25 11.25 0 0 1 4.916 4.916c.976 1.916 1.16 4.165 1.21 7.235a1.676 1.676 0 0 1-3.351.054c-.05-3.108-.262-4.624-.845-5.768a7.9 7.9 0 0 0-3.452-3.452c-1.143-.582-2.66-.793-5.767-.844a1.676 1.676 0 0 1-1.648-1.702Zm-8.976 14.97c.925 0 1.675.75 1.675 1.676v8.805l.002.042a4.283 4.283 0 0 1-.109 1.06 4.425 4.425 0 0 1-1.239 2.186c-.843.819-1.886 1.078-2.568 1.164a5.901 5.901 0 0 1-1.273.02l-.031-.004-.012-.001h-.008l-.001-.001.212-1.662-.213 1.662a1.676 1.676 0 0 1 .421-3.325c.017.001.052.004.099.005.096.003.233 0 .384-.019.338-.042.552-.143.655-.243a1.075 1.075 0 0 0 .333-.709v-.005l-.003-.037v-8.938c0-.925.75-1.676 1.676-1.676Zm-11.251-.119c1.058 0 1.915.857 1.915 1.915v4.188a1.915 1.915 0 1 1-3.83 0v-4.188c0-1.058.858-1.915 1.915-1.915Zm20.585 0c1.058 0 1.915.857 1.915 1.915v4.188a1.915 1.915 0 1 1-3.83 0v-4.188c0-1.058.858-1.915 1.915-1.915ZM25.929 41.752Zm-.01-.01a1.676 1.676 0 0 0-2.45 2.286l1.23-1.137a195.28 195.28 0 0 0-1.229 1.138l.001.002.003.002.006.007.014.015a4.466 4.466 0 0 0 .168.166c.105.1.25.23.438.382.374.304.917.694 1.627 1.078 1.428.772 3.525 1.518 6.273 1.518 2.748 0 4.845-.746 6.273-1.518.71-.384 1.253-.774 1.627-1.078a7.64 7.64 0 0 0 .606-.548l.014-.015.006-.007.003-.002v-.002c.002 0 .002 0-1.228-1.138l1.23 1.137a1.676 1.676 0 0 0-2.45-2.285l-.002.001-.044.043c-.048.045-.13.12-.246.214-.234.19-.605.459-1.11.733-1.007.544-2.56 1.114-4.679 1.114s-3.672-.57-4.678-1.114a7.237 7.237 0 0 1-1.11-.733 4.375 4.375 0 0 1-.29-.257c-.002 0-.002-.001-.002-.002Z" clip-rule="evenodd"/>
</svg>
